X: 1
T: The Galway
R: reel
M: 4/4
L: 1/8
K: Gmaj
B|:AGEG DG,B,D|BAGA BedB|AGED B,DA,D|
|B,~A,3 B,EED|E2 DE GEDB,|D2 CE DG,B,D|
|~E3G DEGA|1 BdAB G3 B:|2 BdAB G2 Bc||
|:d~G3 EGDC|B,G,B,D GBdf|e~c3 AcGE|
|DFAd fedc|BG(3GGG EGDC|B,G,B,D GBdf|
|e~c3 efge|1 dBAB G2 Bc:|2 dBAB G3 B||


Tune 613	Setting 13629

